X:1
T:Who Shall Rule This American Nation?
M:2/4
L:1/8
K:D
 AF F E/2D/2| d/2d/2 dd B| A2 F2| A4| AF F E/2D/2| d/2d/2 dd B| c2 A/2- c3/2|\
 d4| E3/2 F/2 G3/2 G/2| F/2E/2 F/2G/2 Ad| F3/2 G/2 A3/2 A/2| B/2A/2 A/2F/2 E2|\
 AF F E/2D/2| d/2d/2 dd B| c2 A/2- c3/2| d4| e2 d/2 d3/2| c2 d/2 d A/2|\
 A3/2 A/2 BA| A3 E/2F/2| AF F E/2D/2| d/2d/2 dd B| c2 A/2- c3/2| d4|\


